assets/img/braze_icons/edit-04.svg

<svg fill="none" height="24" viewBox="0 0 24 24" width="24" xmlns="http://www.w3.org/2000/svg"><g clip-rule="evenodd" fill="#801ed7" fill-rule="evenodd"><path d="m21.6747 17.2619c.4077.3726.436 1.0052.0634 1.4128l-1.0001 1.094c-.7096.7761-1.6922 1.2313-2.7378 1.2313-1.0453 0-2.0276-.4548-2.7371-1.2304-.3519-.3833-.8082-.5795-1.2629-.5795-.4548 0-.9113.1963-1.2633.58-.3734.4069-1.006.4342-1.4129.0608-.407-.3734-.4342-1.006-.0608-1.4129.7103-.7742 1.6923-1.2279 2.737-1.2279 1.0448 0 2.0267.4537 2.7371 1.2279l.0011.0012c.3513.3842.8074.5808 1.2618.5808.4543 0 .9104-.1966 1.2616-.5807l1.0001-1.094c.3727-.4076 1.0052-.436 1.4128-.0634z"/><path d="m15.793 2.79287c1.2189-1.21894 3.1952-1.21895 4.4142 0 1.2189 1.21896 1.2189 3.19527 0 4.41422l-12.56277 12.56271c-.0198.0198-.03941.0395-.05887.059-.28745.288-.54089.5419-.84642.7291-.26842.1645-.56105.2857-.86716.3592-.34845.0836-.7072.0833-1.1141.0829-.02754 0-.0553 0-.0833 0h-1.67454c-.55228 0-1-.4477-1-1v-1.6745c0-.028-.00003-.0558-.00005-.0833-.00038-.4069-.00071-.7657.08294-1.1141.07349-.3061.1947-.5988.35919-.8672.18724-.3055.44115-.559.72913-.8464.0195-.0195.03915-.0391.05894-.0589z"/></g></svg>

<svg width="24" height="24" viewBox="0 0 24 24" fill="none" xmlns="http://www.w3.org/2000/svg">
<path fill-rule="evenodd" clip-rule="evenodd" d="M21.6747 17.2619C22.0824 17.6345 22.1107 18.2671 21.7381 18.6747L20.738 19.7687C20.0284 20.5448 19.0458 21 18.0002 21C16.9549 21 15.9726 20.5452 15.2631 19.7696C14.9112 19.3863 14.4549 19.1901 14.0002 19.1901C13.5454 19.1901 13.0889 19.3864 12.7369 19.7701C12.3635 20.177 11.7309 20.2043 11.324 19.8309C10.917 19.4575 10.8898 18.8249 11.2632 18.418C11.9735 17.6438 12.9555 17.1901 14.0002 17.1901C15.045 17.1901 16.0269 17.6438 16.7373 18.418L16.7384 18.4192C17.0897 18.8034 17.5458 19 18.0002 19C18.4545 19 18.9106 18.8034 19.2618 18.4193L20.2619 17.3253C20.6346 16.9177 21.2671 16.8893 21.6747 17.2619Z" fill="#801ED7"/>
<path fill-rule="evenodd" clip-rule="evenodd" d="M15.793 2.79287C17.0119 1.57393 18.9882 1.57392 20.2072 2.79287C21.4261 4.01183 21.4261 5.98814 20.2072 7.20709L7.64443 19.7698C7.62463 19.7896 7.60502 19.8093 7.58556 19.8288C7.29811 20.1168 7.04467 20.3707 6.73914 20.5579C6.47072 20.7224 6.17809 20.8436 5.87198 20.9171C5.52353 21.0007 5.16478 21.0004 4.75788 21C4.73034 21 4.70258 21 4.67458 21H3.00004C2.44776 21 2.00004 20.5523 2.00004 20V18.3255C2.00004 18.2975 2.00001 18.2697 1.99999 18.2422C1.99961 17.8353 1.99928 17.4765 2.08293 17.1281C2.15642 16.822 2.27763 16.5293 2.44212 16.2609C2.62936 15.9554 2.88327 15.7019 3.17125 15.4145C3.19075 15.395 3.2104 15.3754 3.23019 15.3556L15.793 2.79287Z" fill="#801ED7"/>
</svg>
